packages/core/assets/Icons/search.svg

<svg viewBox="0 0 20 20" fill="none" xmlns="http://www.w3.org/2000/svg">
<path d="M7.91667 13.3333C6.40278 13.3333 5.12153 12.809 4.07292 11.7604C3.02431 10.7118 2.5 9.43056 2.5 7.91667C2.5 6.40278 3.02431 5.12153 4.07292 4.07292C5.12153 3.02431 6.40278 2.5 7.91667 2.5C9.43056 2.5 10.7118 3.02431 11.7604 4.07292C12.809 5.12153 13.3333 6.40278 13.3333 7.91667C13.3333 8.52778 13.2361 9.10417 13.0417 9.64583C12.8472 10.1875 12.5833 10.6667 12.25 11.0833L16.9167 15.75C17.0694 15.9028 17.1458 16.0972 17.1458 16.3333C17.1458 16.5694 17.0694 16.7639 16.9167 16.9167C16.7639 17.0694 16.5694 17.1458 16.3333 17.1458C16.0972 17.1458 15.9028 17.0694 15.75 16.9167L11.0833 12.25C10.6667 12.5833 10.1875 12.8472 9.64583 13.0417C9.10417 13.2361 8.52778 13.3333 7.91667 13.3333ZM7.91667 11.6667C8.95833 11.6667 9.84375 11.3021 10.5729 10.5729C11.3021 9.84375 11.6667 8.95833 11.6667 7.91667C11.6667 6.875 11.3021 5.98958 10.5729 5.26042C9.84375 4.53125 8.95833 4.16667 7.91667 4.16667C6.875 4.16667 5.98958 4.53125 5.26042 5.26042C4.53125 5.98958 4.16667 6.875 4.16667 7.91667C4.16667 8.95833 4.53125 9.84375 5.26042 10.5729C5.98958 11.3021 6.875 11.6667 7.91667 11.6667Z" fill="currentColor"/>
</svg>

<svg xmlns="http://www.w3.org/2000/svg" width="20" height="20" fill="none" viewBox="0 0 20 20">
  <path fill="#201F1F" d="M7.917 13.333c-1.514 0-2.795-.524-3.844-1.573C3.024 10.712 2.5 9.43 2.5 7.917c0-1.514.524-2.795 1.573-3.844S6.403 2.5 7.917 2.5c1.514 0 2.795.524 3.843 1.573 1.049 1.049 1.573 2.33 1.573 3.844a5.08 5.08 0 0 1-1.083 3.166l4.667 4.667a.79.79 0 0 1 .229.583.79.79 0 0 1-.23.584.79.79 0 0 1-.583.229.79.79 0 0 1-.583-.23l-4.667-4.666a5.08 5.08 0 0 1-3.167 1.083Zm0-1.666c1.041 0 1.927-.365 2.656-1.094.73-.73 1.094-1.615 1.094-2.656 0-1.042-.365-1.927-1.094-2.657-.73-.729-1.615-1.093-2.656-1.093-1.042 0-1.927.364-2.657 1.093-.729.73-1.093 1.615-1.093 2.657 0 1.041.364 1.927 1.093 2.656.73.73 1.615 1.094 2.657 1.094Z"/>
</svg>
